symbols/web/visibility_off/materialsymbolsrounded/visibility_off_wght500gradN25fill1_40px.svg

<svg xmlns="http://www.w3.org/2000/svg" height="40" width="40"><path d="m31.75 27.708-5.417-5.416q.334-.625.521-1.48.188-.854.188-1.645 0-2.959-2.042-5-2.042-2.042-5-2.042-.792 0-1.604.167-.813.166-1.521.541L12.25 8.208q1.5-.666 3.667-1.125 2.166-.458 4.208-.458 5.667 0 10.375 3.042 4.708 3.041 7.208 8.166.125.292.188.625.062.334.062.709 0 .375-.062.729-.063.354-.188.604-1.041 2.167-2.541 3.979-1.5 1.813-3.417 3.229Zm.667 8.5-5.709-5.666q-1.416.541-3.146.854-1.729.312-3.562.312-5.75 0-10.458-3.041-4.709-3.042-7.25-8.209-.125-.291-.188-.604-.062-.312-.062-.687 0-.375.062-.729.063-.355.188-.605.875-1.791 2.146-3.458 1.27-1.667 2.937-3.167l-4-4.041Q3 6.792 3 6.229q0-.562.417-.979.375-.375.958-.375t1 .375l29 29.042q.375.375.375.916 0 .542-.375.959-.417.458-.979.437-.563-.021-.979-.396ZM20 26.208q.5 0 1.083-.083.584-.083 1-.25l-8.791-8.75q-.167.458-.25.979-.084.521-.084 1.063 0 2.958 2.063 5 2.062 2.041 4.979 2.041Zm4.083-6.166-4.875-4.917q2.125-.708 3.896.875t.979 4.042Z"/></svg>

<svg xmlns="http://www.w3.org/2000/svg" height="40" width="40"><path d="M31.75 27.708 26.333 22.292Q26.667 21.667 26.854 20.812Q27.042 19.958 27.042 19.167Q27.042 16.208 25 14.167Q22.958 12.125 20 12.125Q19.208 12.125 18.396 12.292Q17.583 12.458 16.875 12.833L12.25 8.208Q13.75 7.542 15.917 7.083Q18.083 6.625 20.125 6.625Q25.792 6.625 30.5 9.667Q35.208 12.708 37.708 17.833Q37.833 18.125 37.896 18.458Q37.958 18.792 37.958 19.167Q37.958 19.542 37.896 19.896Q37.833 20.25 37.708 20.5Q36.667 22.667 35.167 24.479Q33.667 26.292 31.75 27.708ZM32.417 36.208 26.708 30.542Q25.292 31.083 23.562 31.396Q21.833 31.708 20 31.708Q14.25 31.708 9.542 28.667Q4.833 25.625 2.292 20.458Q2.167 20.167 2.104 19.854Q2.042 19.542 2.042 19.167Q2.042 18.792 2.104 18.438Q2.167 18.083 2.292 17.833Q3.167 16.042 4.438 14.375Q5.708 12.708 7.375 11.208L3.375 7.167Q3 6.792 3 6.229Q3 5.667 3.417 5.25Q3.792 4.875 4.375 4.875Q4.958 4.875 5.375 5.25L34.375 34.292Q34.75 34.667 34.75 35.208Q34.75 35.75 34.375 36.167Q33.958 36.625 33.396 36.604Q32.833 36.583 32.417 36.208ZM20 26.208Q20.5 26.208 21.083 26.125Q21.667 26.042 22.083 25.875L13.292 17.125Q13.125 17.583 13.042 18.104Q12.958 18.625 12.958 19.167Q12.958 22.125 15.021 24.167Q17.083 26.208 20 26.208ZM24.083 20.042 19.208 15.125Q21.333 14.417 23.104 16Q24.875 17.583 24.083 20.042Z"/></svg>
